dist/svg/electric-outlet-duo-tone.svg

<svg xmlns="http://www.w3.org/2000/svg" viewBox="0 0 24 24"><path d="M11.34 2.281c-1.875.117-3.691.798-5.256 1.971-.501.375-1.468 1.344-1.839 1.84a9.9 9.9 0 0 0-1.892 4.48c-.114.705-.123 2.019-.02 2.728a9.96 9.96 0 0 0 1.912 4.608c.377.504 1.343 1.47 1.847 1.847a9.95 9.95 0 0 0 4.608 1.911c.333.048.732.07 1.3.07 1.556 0 2.894-.306 4.26-.974 1.052-.515 1.77-1.03 2.621-1.881s1.367-1.57 1.88-2.621c1.616-3.305 1.23-7.202-1.006-10.164-1.541-2.041-3.921-3.42-6.475-3.751a11 11 0 0 0-1.94-.064m-.099 3.189c.001 1.538.007 1.683.075 1.83a.743.743 0 0 0 1.368 0c.068-.147.074-.292.075-1.835l.001-1.674.23.026c2.476.285 4.768 1.775 6.086 3.956.887 1.469 1.305 3.351 1.123 5.059-.27 2.531-1.614 4.708-3.78 6.127-.919.601-2.32 1.105-3.409 1.224l-.25.027v-1.666c0-1.414-.009-1.689-.062-1.815a.748.748 0 0 0-1.396 0c-.053.126-.062.401-.062 1.81V20.2h-.09c-.175 0-.855-.124-1.245-.226a8.33 8.33 0 0 1-4.983-3.75C4.182 14.998 3.76 13.464 3.76 12a8.24 8.24 0 0 1 5.66-7.821c.577-.19 1.32-.352 1.71-.373l.11-.006zM7.4 9.302c-.143.031-.431.14-.639.243A2.76 2.76 0 0 0 5.241 12c0 1.033.599 2 1.52 2.455.831.41 1.647.41 2.478 0A2.76 2.76 0 0 0 10.759 12c0-1.033-.599-2-1.52-2.455A3.4 3.4 0 0 0 8.58 9.3a3.2 3.2 0 0 0-1.18.002m8 0c-.143.031-.431.14-.639.243A2.76 2.76 0 0 0 13.241 12c0 1.033.599 2 1.52 2.455.831.41 1.647.41 2.478 0A2.76 2.76 0 0 0 18.759 12c0-1.033-.599-2-1.52-2.455a3.4 3.4 0 0 0-.659-.245 3.2 3.2 0 0 0-1.18.002M8.54 10.89c.238.123.456.343.585.59.077.148.094.241.094.52 0 .291-.015.369-.106.54-.127.24-.348.458-.593.585-.148.077-.241.094-.52.094s-.372-.017-.52-.094a1.45 1.45 0 0 1-.593-.585c-.091-.171-.106-.249-.106-.54 0-.279.017-.372.094-.52.168-.323.46-.572.805-.685.196-.064.646-.015.86.095m8 0c.238.123.456.343.585.59.077.148.094.241.094.52 0 .291-.015.369-.106.54-.127.24-.348.458-.593.585-.148.077-.241.094-.52.094s-.372-.017-.52-.094a1.45 1.45 0 0 1-.593-.585c-.091-.171-.106-.249-.106-.54 0-.279.017-.372.094-.52.168-.323.46-.572.805-.685.196-.064.646-.015.86.095" fill-rule="evenodd"/></svg>

<svg fill="none" xmlns="http://www.w3.org/2000/svg" viewBox="0 0 24 24"><path d="M11.340 2.281 C 9.465 2.398,7.649 3.079,6.084 4.252 C 5.583 4.627,4.616 5.596,4.245 6.092 C 3.236 7.444,2.622 8.895,2.353 10.572 C 2.239 11.277,2.230 12.591,2.333 13.300 C 2.582 15.004,3.215 16.530,4.245 17.908 C 4.622 18.412,5.588 19.378,6.092 19.755 C 7.471 20.785,9.000 21.420,10.700 21.666 C 11.033 21.714,11.432 21.736,12.000 21.736 C 13.556 21.736,14.894 21.430,16.260 20.762 C 17.312 20.247,18.030 19.732,18.881 18.881 C 19.732 18.030,20.248 17.311,20.761 16.260 C 22.377 12.955,21.991 9.058,19.755 6.096 C 18.214 4.055,15.834 2.676,13.280 2.345 C 12.683 2.268,11.941 2.243,11.340 2.281 M11.241 5.470 C 11.242 7.008,11.248 7.153,11.316 7.300 C 11.594 7.904,12.406 7.904,12.684 7.300 C 12.752 7.153,12.758 7.008,12.759 5.465 L 12.760 3.791 12.990 3.817 C 15.466 4.102,17.758 5.592,19.076 7.773 C 19.963 9.242,20.381 11.124,20.199 12.832 C 19.929 15.363,18.585 17.540,16.419 18.959 C 15.500 19.560,14.099 20.064,13.010 20.183 L 12.760 20.210 12.760 18.544 C 12.760 17.130,12.751 16.855,12.698 16.729 C 12.431 16.089,11.569 16.089,11.302 16.729 C 11.249 16.855,11.240 17.130,11.240 18.539 L 11.240 20.200 11.150 20.200 C 10.975 20.200,10.295 20.076,9.905 19.974 C 7.842 19.432,6.042 18.077,4.922 16.224 C 4.182 14.998,3.760 13.464,3.760 12.000 C 3.760 8.448,6.048 5.286,9.420 4.179 C 9.997 3.989,10.740 3.827,11.130 3.806 L 11.240 3.800 11.241 5.470 M7.400 9.302 C 7.257 9.333,6.969 9.442,6.761 9.545 C 5.840 10.000,5.241 10.967,5.241 12.000 C 5.241 13.033,5.840 14.000,6.761 14.455 C 7.592 14.865,8.408 14.865,9.239 14.455 C 10.160 14.000,10.759 13.033,10.759 12.000 C 10.759 10.967,10.160 10.000,9.239 9.545 C 9.031 9.442,8.734 9.332,8.580 9.300 C 8.234 9.228,7.744 9.228,7.400 9.302 M15.400 9.302 C 15.257 9.333,14.969 9.442,14.761 9.545 C 13.840 10.000,13.241 10.967,13.241 12.000 C 13.241 13.033,13.840 14.000,14.761 14.455 C 15.592 14.865,16.408 14.865,17.239 14.455 C 18.160 14.000,18.759 13.033,18.759 12.000 C 18.759 10.967,18.160 10.000,17.239 9.545 C 17.031 9.442,16.734 9.332,16.580 9.300 C 16.234 9.228,15.744 9.228,15.400 9.302 M8.540 10.890 C 8.778 11.013,8.996 11.233,9.125 11.480 C 9.202 11.628,9.219 11.721,9.219 12.000 C 9.219 12.291,9.204 12.369,9.113 12.540 C 8.986 12.780,8.765 12.998,8.520 13.125 C 8.372 13.202,8.279 13.219,8.000 13.219 C 7.721 13.219,7.628 13.202,7.480 13.125 C 7.235 12.998,7.014 12.780,6.887 12.540 C 6.796 12.369,6.781 12.291,6.781 12.000 C 6.781 11.721,6.798 11.628,6.875 11.480 C 7.043 11.157,7.335 10.908,7.680 10.795 C 7.876 10.731,8.326 10.780,8.540 10.890 M16.540 10.890 C 16.778 11.013,16.996 11.233,17.125 11.480 C 17.202 11.628,17.219 11.721,17.219 12.000 C 17.219 12.291,17.204 12.369,17.113 12.540 C 16.986 12.780,16.765 12.998,16.520 13.125 C 16.372 13.202,16.279 13.219,16.000 13.219 C 15.721 13.219,15.628 13.202,15.480 13.125 C 15.235 12.998,15.014 12.780,14.887 12.540 C 14.796 12.369,14.781 12.291,14.781 12.000 C 14.781 11.721,14.798 11.628,14.875 11.480 C 15.043 11.157,15.335 10.908,15.680 10.795 C 15.876 10.731,16.326 10.780,16.540 10.890 " stroke="none" fill-rule="evenodd" fill="currentColor"/></svg>
